components/Common/Svg/svgs/lab.svg

<svg width="40" height="40" viewBox="0 0 40 40" fill="none" xmlns="http://www.w3.org/2000/svg">
<path d="M31.7879 29.2892L25.0272 16.0816V5.87501H25.9464C26.4641 5.87501 26.8839 5.45526 26.8839 4.93751C26.8839 4.41976 26.4641 4.00001 25.9464 4.00001H14.0532C13.5355 4.00001 13.1157 4.41976 13.1157 4.93751C13.1157 5.45526 13.5355 5.87501 14.0532 5.87501H14.9724V16.0816L8.21173 29.2893C7.47429 30.7299 7.53816 32.4143 8.38248 33.795C9.22679 35.1757 10.697 36 12.3155 36H27.6841C29.3025 36 30.7728 35.1757 31.6171 33.795C32.4615 32.4143 32.5253 30.7299 31.7879 29.2892ZM16.7445 16.7348C16.8122 16.6025 16.8474 16.4561 16.8474 16.3076V5.87501H23.1521V16.3076C23.1521 16.4561 23.1874 16.6025 23.255 16.7348L25.8637 21.8309H14.1359L16.7445 16.7348ZM27.6841 34.125H12.3155C11.3554 34.125 10.483 33.6359 9.9821 32.8168C9.70029 32.356 9.56504 31.8383 9.57848 31.3213C9.58598 31.0341 9.63935 30.7471 9.73898 30.4703C9.77885 30.3595 13.176 23.7059 13.176 23.7059H26.8235C26.8235 23.7059 30.1717 30.2509 30.1953 30.3054C30.3371 30.6323 30.4122 30.9766 30.4211 31.3213C30.4345 31.8383 30.2993 32.356 30.0175 32.8168C29.5166 33.6359 28.6443 34.125 27.6841 34.125Z" fill="#161616"/>
</svg>

<svg width="40" height="40" viewBox="0 0 40 40" fill="none" xmlns="http://www.w3.org/2000/svg"><path d="m31.788 29.29-6.76-13.208V5.875h.918a.938.938 0 0 0 0-1.875H14.053a.938.938 0 0 0 0 1.875h.92v10.207L8.211 29.289a4.578 4.578 0 0 0 .17 4.506A4.578 4.578 0 0 0 12.316 36h15.368a4.578 4.578 0 0 0 3.933-2.205 4.578 4.578 0 0 0 .17-4.506ZM16.744 16.734a.938.938 0 0 0 .103-.427V5.875h6.305v10.433c0 .148.035.294.103.427l2.609 5.096H14.136l2.608-5.096Zm10.94 17.39H12.315c-.96 0-1.832-.49-2.333-1.308a2.725 2.725 0 0 1-.243-2.347c.04-.11 3.437-6.764 3.437-6.764h13.647s3.349 6.545 3.372 6.6c.142.326.217.67.226 1.015a2.725 2.725 0 0 1-.404 1.496 2.716 2.716 0 0 1-2.333 1.308Z" fill="#161616"/></svg>
